app/assets/images/heroicons/outline/bold.svg

<svg width="24" height="24" viewBox="0 0 24 24" fill="none" xmlns="http://www.w3.org/2000/svg">
<path d="M6.75038 3.74414H5.99707V11.9949H13.1221C15.4002 11.9949 17.2471 10.1479 17.2471 7.8695C17.2471 5.59113 15.4002 3.74414 13.1221 3.74414H6.75038ZM6.75038 3.74414V4.12491M6.75038 20.2456H13.4971C15.9824 20.2456 17.9971 18.2307 17.9971 15.7452C17.9971 13.2597 15.9824 11.2448 13.4971 11.2448H5.99707V20.2456H6.75038ZM6.75038 20.2456V19.8751M6.75038 4.12491H12.7504C14.8215 4.12491 16.5005 5.80387 16.5005 7.87496C16.5005 9.94606 14.8215 11.625 12.7504 11.625H6.75038M6.75038 4.12491V11.625M6.75038 11.625V19.8751M6.75038 11.625H13.1254C15.4036 11.625 17.2505 13.4719 17.2505 15.7501C17.2505 18.0283 15.4036 19.8751 13.1254 19.8751H6.75038M7.49707 4.49421H12.3721C14.236 4.49421 15.7471 6.00538 15.7471 7.8695C15.7471 9.73362 14.236 11.2448 12.3721 11.2448H7.49707V4.49421ZM7.49707 11.9949H12.7471C14.8181 11.9949 16.4971 13.6739 16.4971 15.7452C16.4971 17.8164 14.8181 19.4955 12.7471 19.4955H7.49707V11.9949Z" stroke="black" stroke-width="2" stroke-linejoin="round"/>
</svg>

<svg xmlns="http://www.w3.org/2000/svg" fill="none" viewBox="0 0 24 24" stroke-width="1.5" stroke="currentColor" aria-hidden="true" data-slot="icon">
  <path stroke-linejoin="round" d="M6.75 3.744h-.753v8.25h7.125a4.125 4.125 0 0 0 0-8.25H6.75Zm0 0v.38m0 16.122h6.747a4.5 4.5 0 0 0 0-9.001h-7.5v9h.753Zm0 0v-.37m0-15.751h6a3.75 3.75 0 1 1 0 7.5h-6m0-7.5v7.5m0 0v8.25m0-8.25h6.375a4.125 4.125 0 0 1 0 8.25H6.75m.747-15.38h4.875a3.375 3.375 0 0 1 0 6.75H7.497v-6.75Zm0 7.5h5.25a3.75 3.75 0 0 1 0 7.5h-5.25v-7.5Z"/>
</svg>
